X: 6
T:Jackets Green
M:4/4
L:1/8
Q:120
C:Traditional
O:Mick Clancy
A:North Leitrim
K:G
ef |g3 f e2 dB |A2 G2 E2 GA |B2 BG A2 A2 |
G6 B2 |:d3 B d2 ef |g3 f e2 d2 |e3/2f/ ed BA Bd |1
e6 B2 :|2e6 ef ||ga gf e2 dB |A3/2B/ AG E2 GA |
B2 BG A2 A2 |G6 ef ||
